X:92
T:The Hog-Eye Man
M:2/4
L:1/16
Q:1/4=100
K:Gm
B2c2|\
d2c2 c2B2|d2c2 c2Bc|d2c2 B3G|B2c2 G2FF|
B2 B6    |F2F2 FGFE|F2 F6   |GGGG G2FF|
B2c2 d3d |d6     G2|G4   G4 |G4 ||
